X:1
T:Read to Me the Blessèd Bible
T:Read to Me the Blessèd Bible
T:A. F. Myers
T:Mary Irene McLean, 1894
T:Public Domain Courtesy of the Cyber Hymnal™
T:Public Domain Courtesy of the Cyber Hymnal™
C:A. F. Myers
Z:Public Domain
Z:Courtesy of the Cyber Hymnal™
%%score ( 1 2 ) ( 3 4 )
L:1/8
Q:1/4=107
M:4/4
K:A
V:1 treble 
V:2 treble 
V:3 bass 
V:4 bass 
V:1
 [Ec]>[Ec] [Ec]>[DB] [CA]2 [CE]2 | ([^B,^D]2 [=DF]2) [CE]4 | [CE]>[CE] [CE]>[CE] [EA]2 [Ec]2 | %3
w: 1.~Read to me the bless- èd|Bi- * ble,|On its sac- red pag- es|
w: 2.~’Tis a fount of liv- ing|wa- * ter,|Where the soul its thirst may|
w: 3.~Read to me the bless- èd|Bi- * ble,|Read it care- ful- ly and|
w: 4.~It is com- fort for the|trou- * bled,|To the lone- ly ’tis a|
w: 5.~When you read a- bout the|Ci- * ty,|Whose fair day ne’er ends with|
 [EB]6 z2 | [Ec]>[Ec] [Ec]>[DB] [CA]2 [CE]2 | ([^B,^D]2 [=DF]2) [CE]4 | %6
w: shine|Grace and truth and ten- der|mer- * cy,|
w: slake,|Bread of life it free- ly|of- * fers,|
w: slow,|’Tis a ref- uge and a|shel- * ter,|
w: guest,|For the pen- i- tent, ’tis|par- * don,|
w: night,|Death is not the king of|ter- * rors,|
 [CA]>[CE] [EA]>[FB] [Ec]2 [DB]2 | [CA]6 z2 ||"^Refrain" c4 B4 | A4 G4 | %10
w: And a Sav- ior’s love di-|vine.|||
w: Un- to all who will par-|take.|Read the|Bi- ble,|
w: From the storm- y winds that|blow.|||
w: To the wear- y it is|rest.|||
w: But a mes- sen- ger of|light.|||
 F>[DF] [EA]>[EB] [Ec]2 [EA]2 | [EB]6 z2 | (cccc) (BBBB) | (AAAA) (GGGG) | %14
w: ||||
w: Now the lamp of life burns|low,|These * * * will * * *|cheer * * * me, * * *|
w: ||||
w: ||||
w: ||||
 F>[DF] [EG]>[DF] [CE]2 [DG]2 | [CA]6 z2 |] %16
w: ||
w: When the ag- èd feet move|slow.|
w: ||
w: ||
w: ||
V:2
 x8 | x8 | x8 | x8 | x8 | x8 | x8 | x8 || (AAAA) (GGGG) | (FFFF) (^EEEE) | F3/2 x13/2 | x8 | %12
 A4 G4 | F4 ^E4 | F3/2 x13/2 | x8 |] %16
V:3
 [A,,A,]>[A,,A,] [A,,A,]>[A,,E,] [A,,E,]2 [A,,A,]2 | [A,,A,]4 [A,,A,]4 | %2
w: ~ ~ ~ ~ ~ ~|~ ~|
 [A,,A,]>[A,,A,] [A,,A,]>[A,,A,] [C,A,]2 [E,A,]2 | [E,G,]6 z2 | %4
w: ~ ~ ~ ~ ~ ~|~|
 [A,,A,]>[A,,A,] [A,,A,]>[A,,E,] [A,,E,]2 [A,,A,]2 | [A,,A,]4 [A,,A,]4 | %6
w: ~ ~ ~ ~ ~ ~|~ ~|
 [A,,A,]>[A,,A,] [C,A,]>[D,A,] [E,A,]2 [E,G,]2 | [A,,A,]6 z2 || E4 D4 | C4 C3 [C,B,] | %10
w: ~ ~ ~ ~ ~ ~|~|Read to|me the words|
 [D,A,]>[D,A,] [C,A,]>[B,,G,] [A,,A,]2 [C,A,]2 | [E,G,]6 z2 | EEEE DDDD | CCCC CCCC | %14
w: of Je- sus, Read to me|the|words of Je- sus, ~ ~ ~ ~|~ ~ ~ These will cheer me in|
 [D,A,]>[D,A,] [D,A,]>[D,A,] [D,A,]2 E,2 | [A,,E,]6 z2 |] %16
w: the val- ley, These will cheer|me|
V:4
 x8 | x8 | x8 | x8 | x8 | x8 | x8 | x8 || A,A,A,A, E,E,E,E, | F,F,F,F, C,C,C, x | x8 | x8 | %12
 A,4 E,4 | F,4 C,4 | x6 E,2 | x8 |] %16

